/* XPM */
static char *acc035a87ea807e0fa53095c053c2c81[] = {
/* columns rows colors chars-per-pixel */
"50 50 207 2 ",
"   c None",
".  c #2D2932",
"X  c #2D2933",
"o  c #2E2932",
"O  c #2E2933",
"+  c #2F2933",
"@  c #2D2A32",
"#  c #2D2A33",
"$  c #2D2B33",
"%  c #2E2A32",
"&  c #2E2B32",
"*  c #2E2A33",
"=  c #2F2A33",
"-  c #2E2934",
";  c #2E2A34",
":  c #2E2B34",
">  c #2F2B34",
",  c #302A33",
"<  c #312A33",
"1  c #352933",
"2  c #362933",
"3  c #342A33",
"4  c #372A33",
"5  c #302C35",
"6  c #322E37",
"7  c #3B2933",
"8  c #382A33",
"9  c #392A33",
"0  c #3C2933",
"q  c #343039",
"w  c #36323B",
"e  c #37333C",
"r  c #432932",
"t  c #442933",
"y  c #462933",
"u  c #4A2932",
"i  c #4B2933",
"p  c #4C2833",
"a  c #4D2833",
"s  c #4D2933",
"d  c #4E2932",
"f  c #4F2933",
"g  c #512833",
"h  c #552832",
"j  c #552833",
"k  c #572833",
"l  c #582833",
"z  c #5A2833",
"x  c #5F2833",
"c  c #632733",
"v  c #662733",
"b  c #672733",
"n  c #6B2733",
"m  c #6C2732",
"M  c #6E2733",
"N  c #612832",
"B  c #652833",
"V  c #6A2833",
"C  c #6F2832",
"Z  c #712733",
"A  c #722733",
"S  c #7B2732",
"D  c #7F2632",
"F  c #7E2633",
"G  c #403C45",
"H  c #434048",
"J  c #454149",
"K  c #46424A",
"L  c #47434B",
"P  c #47444C",
"I  c #4D4A51",
"U  c #4E4B52",
"Y  c #504D55",
"T  c #524F56",
"R  c #535057",
"E  c #545058",
"W  c #57545B",
"Q  c #58555C",
"!  c #5B585F",
"~  c #5E5B62",
"^  c #5F5C63",
"/  c #6A676D",
"(  c #6B686E",
")  c #767479",
"_  c #77747A",
"`  c #79767C",
"'  c #7C797F",
"]  c #832632",
"[  c #842633",
"{  c #862732",
"}  c #8A2632",
"|  c #8F2533",
" . c #8D2633",
".. c #8E2632",
"X. c #942533",
"o. c #972633",
"O. c #982532",
"+. c #9A2532",
"@. c #9B2633",
"#. c #9D2532",
"$. c #A22533",
"%. c #A42532",
"&. c #AB2433",
"*. c #AC2532",
"=. c #AF2532",
"-. c #B02432",
";. c #B52432",
":. c #B42532",
">. c #B62432",
",. c #BE2432",
"<. c #BF2432",
"1. c #C72332",
"2. c #C22432",
"3. c #C42432",
"4. c #C52432",
"5. c #C52433",
"6. c #CA2332",
"7. c #CB2332",
"8. c #CD2332",
"9. c #C92432",
"0. c #D12332",
"q. c #D02333",
"w. c #D32333",
"e. c #D42332",
"r. c #D52332",
"t. c #D92332",
"y. c #DA2332",
"u. c #DB2332",
"i. c #DD2232",
"p. c #DE2332",
"a. c #E02332",
"s. c #E22232",
"d. c #E32232",
"f. c #E42332",
"g. c #E62232",
"h. c #E82232",
"j. c #E92232",
"k. c #EA2232",
"l. c #EB2232",
"z. c #EC2232",
"x. c #F04F5C",
"c. c #EC5C68",
"v. c #F05461",
"b. c #F2646F",
"n. c #F26873",
"m. c #F3717B",
"M. c #F3727C",
"N. c #7D7A80",
"B. c #817E84",
"V. c #947C82",
"C. c #8B898E",
"Z. c #8C8A8F",
"A. c #9D9B9F",
"S. c #A2A0A4",
"D. c #A2A1A5",
"F. c #AAA8AC",
"G. c #ABAAAD",
"H. c #ACABAE",
"J. c #B2B0B4",
"K. c #BDBBBE",
"L. c #F4818A",
"P. c #F4828B",
"I. c #F5878F",
"U. c #EA8E97",
"Y. c #F58992",
"T. c #F58D95",
"R. c #F6949C",
"E. c #EA9FA5",
"W. c #F79CA3",
"Q. c #F79FA6",
"!. c #F9B4BA",
"~. c #C0BFC1",
"^. c #C6C5C7",
"/. c #C6C5C8",
"(. c #C7C6C9",
"). c #C8C7C9",
"_. c #D0CFD1",
"`. c #D6D5D7",
"'. c #D7D6D8",
"]. c #D8D7D9",
"[. c #DBDADC",
"{. c #EAC8CC",
"}. c #E9CDD0",
"|. c #FBD2D5",
" X c #E9DEE0",
".X c #E4E3E5",
"XX c #E5E4E5",
"oX c #E6E6E7",
"OX c #EAE4E5",
"+X c #E9E8E9",
"@X c #EBEAEB",
"#X c #EFEEEF",
"$X c #FDE9EB",
"%X c #FDEDEE",
"&X c #FEEEEF",
"*X c #F1F1F1",
"=X c #F4F3F4",
"-X c #F9F9F9",
";X c gray98",
":X c #FEF8F9",
">X c gray99",
",X c #FDFCFD",
"<X c #FFFCFC",
"1X c #FFFCFD",
"2X c #FFFDFD",
"3X c #FFFEFE",
"4X c white",
/* pixels */
"              @ @ , @ @ @ , @ @ , @ @ , - : @ - : @ - : @ - : @ , - : , - : , @ - @ -               ",
"          @ @ - @ : - : : - : - - : : - , @ @ , , @ , @ @ , , @ @ @ @ @ @ @ @ @ > @ @ : @           ",
"        : - - @ , - - , @ - : , @ @ @ @ : @ @ : - @ , @ : - - : - : : - , @ @ : - @ @ - , -         ",
"      @ 5 @ - , @ @ : @ @ , @ @ , : - , - , @ - : @ - : @ , @ @ , @ @ , - : , - : , @ : @ @ ,       ",
"    @ 5 @ , - @ @ @ , @ : - @ : - : , - : @ @ , - , : - @ : @ @ @ , - @ @ : @ @ @ , : @ , @ @ @     ",
"  @ @ @ @ @ : - : - - : @ , @ - @ @ @ @ , @ @ : : @ @ @ , - - , @ : : @ @ - , : - @ - @ : - : - -   ",
"  , @ , , @ @ , @ , , @ @ , @ , , @ @ : - @ , - @ @ @ - : - : @ , - - , , - , - : @ - , @ - : @ -   ",
"@ - : - @ : - @ @ : - @ : - @ : - : , - : @ , y N C C V k 0 , @ @ @ : @ @ : @ @ @ , : @ , @ @ , - @ ",
"@ , - @ : @ , : @ - : @ - : @ - : - @ 3 Z -.p.z.z.z.z.z.z.z.8.o.k @ @ @ - @ - : - @ : - @ , - @ @ - ",
"- @ : - - @ @ - , @ @ , , @ @ , @ 9 ..p.z.z.z.z.z.z.z.z.z.z.z.z.z.5.V - @ - , @ : , @ @ - @ : , , > ",
"@ @ @ , @ , , @ : - - : @ - @ @ C y.z.z.z.z.z.z.z.z.z.z.z.z.z.z.z.z.z.:.y - @ @ @ , @ , : @ : @ @ - ",
", : - @ : - @ : @ @ , @ - , , #.z.z.z.z.z.z.z.l.u.6.<.6.a.z.z.z.z.z.z.z.p.c - : - @ : - @ , - @ - @ ",
"@ - , @ - : @ - , @ : @ , 3 :.z.z.z.z.z.l.*.Z 0 - , : - , s ] 9.z.z.z.z.l.l.A @ : @ - : , @ - , : @ ",
"@ : @ : , @ , @ : - - @ 5 -.z.z.z.z.l.*.i @ @ - : @ @ , - - - @ V 0.z.z.l.z.l.v @ , , @ @ : : @ @ , ",
", : @ - @ @ , : @ - : , ..z.z.z.z.f.C - @ , - , @ @ @ @ - , @ - : 3 $.z.l.z.z.f.f @ @ - @ - - @ - , ",
"@ - , @ - : @ - , @ @ z l.z.z.z.p.g - @ : - @ @ q L R H : @ @ : - @ -  .z.z.z.z.5., @ : , @ : , : @ ",
"@ : @ @ : - @ : - @ , 9.z.z.l.l.z @ - : @ 5 _ ^.-X4X4X4X@XG.T @ - @ - , O.z.l.l.F : @ @ @ , @ @ , @ ",
"@ - , : @ , @ - : @ Z z.z.z.l.S @ - , @ I ].4X4X4X4X4X4X4X4X,XD.6 @ : @ , 5.l.] @ - : - : - - : @ : ",
", - , - @ , @ , @ @ 5.z.z.z.5., - @ @ ~ =X4X4X4X4X4X4X4X4X4X4X4X/.q @ - @ g F @ , @ @ , , @ @ , - : ",
"@ : @ @ : - @ : - f z.z.z.z.N @ @ @ K #X4X4X4X4X4X*XoX-X4X4X4X4X4XJ., @ @ , - : @ : - @ @ : - @ , @ ",
"@ : @ @ - : @ - @ { z.z.z.e., @ , - K.4X4X4X4X~.Q @ 5 q ' #X4X4X4X4X( - @ , - @ - : @ - : @ - : @ @ ",
", - - , , @ @ , - :.z.z.z.X.- : @ R 4X4X4X4XD.5 @ , @ : @ G .X4X4X4X_.@ - @ : , , @ , @ @ , @ , - : ",
"@ : : @ : @ @ : @ e.z.z.z.C : - - A.4X4X4X`.5 @ - @ @ - - @ ~ 4X4X4X4XP : @ : @ @ @ , : - , @ @ - @ ",
"@ - , @ - , @ - , z.z.z.z.g @ @ : ).4X4X4XB.@ - - , - , @ - @ `.4X4X4X_ @ , - @ - : @ - : @ - : : , ",
", - @ , - @ , - 3 z.z.z.z.7 @ , @ .X4X4X4XQ : - : @ - : @ - : H.4X4X4XZ.@ @ @ , - @ : - @ , - @ @ , ",
"@ : @ : : @ @ : 3 l.z.z.l.7 : - @ @X4X4X4XU @ , , @ , @ @ , @ H.4X4X4XC.@ - : - : , @ @ - @ : , - @ ",
"@ : @ - , @ @ , 5 l.z.z.l.3 @ @ @ +X4X4X4XI @ @ - @ , @ - @ @ ].4X4X4X) , - : @ @ , @ , : @ : @ : @ ",
", - @ , - @ : - - e.z.z.z.7 @ , - +X4X4X4XU : - : @ - : @ @ ^ 4X4X4X4XK - @ @ , - @ : - @ , - @ @ , ",
"@ : @ @ : , - : - :.z.z.z.9 - @ @ +X4X4X4XI @ , - @ - @ , K .X4X4X4X_.- @ : , @ : @ - : , @ - , @ : ",
"@ - , : @ @ @ @ @ { z.z.z.9 @ - , @X4X4X4XU - @ : - @ e N.@X4X4X4X4X/ @ , - @ : @ , , @ @ : : @ , - ",
", - , - - , , - - s z.z.z.9 @ , @ +X|.T.<XI - @ @ ).oX-X4X4X4X4X4XJ., @ @ - @ - - @ @ - @ - - @ @ - ",
"@ : @ @ : @ @ : @ - 5.z.l.9 - @ @ +X4Xm.!.Y @ , @ '.4X4X4X4X4X4X^.q @ @ 5 s s @ : , @ : , @ : , @ : ",
"@ : @ @ - : @ - : @ C l.l.4 - @ , {.v.M.$XI @ - : `.4X4X4X4X4XD.5 @ , @ , 5.y.i - @ , @ - , @ - @ - ",
", - - , , @ @ , , @ @ 3.l.9 : - @ U.W.4X4XI , @ @ '.4X4X@XG.I - - : : - @.z.z.p.s - @ : : @ @ : , @ ",
"@ : : @ : @ @ : - @ , z l.9 @ @ @  Xb.R.4XU - : @ P E H @ , , @ @ : @ X.z.z.z.z.:.- : - @ , , @ - : ",
"@ - , @ - , @ - : @ - : { 9 - , @ +X4Xb.|.I @ - , - @ @ @ : - - @ 4 %.l.z.z.z.a.s @ @ @ - @ : - @ , ",
", - @ @ , - @ , - @ : - , 5 @ , > OXP.n.:XU , @ - @ @ , - @ - @ V 0.z.z.z.z.l.v @ : , @ : @ - : : @ ",
"@ : : - @ : @ : : , @ @ @ - @ @ - E.Y.4X4XU @ : : - - @ , f [ 8.z.z.z.z.l.l.C @ , - @ : @ , , @ - @ ",
"@ - : , @ : @ - @ , @ , , @ , - @ {.x.Y.&XI @ - @ %.,.9.a.z.z.z.z.z.z.z.p.c @ - @ - @ - - @ @ - @ , ",
"@ , @ @ , - @ , - @ : - @ : - @ @ [.4XP.Q.U , @ , 9.z.z.z.z.z.z.z.z.z.:.r @ - @ @ : , @ : , @ : : - ",
"- @ , @ : - @ : : @ - : @ - : @ @ q V.c.&XU - : @ 9.z.z.z.z.z.z.z.5.B , @ : , @ , @ @ , @ @ , @ @ - ",
": - @ : @ @ , - @ , @ , , @ @ , : - 5 e ` G @ , - 5.z.z.z.z.7.O.k - @ @ , - @ : : - : - - : : - , @ ",
": @ @ - , @ , @ - , @ @ : - - : @ , , @ @ - @ @ @ N C v k 9 - : : @ - : @ - @ - @ - : @ , @ @ , : @ ",
"  @ , @ : - @ : : @ - : @ @ , @ @ : - @ @ , - : @ - - @ @ : @ , @ @ @ , @ : , @ , @ @ , @ : - @ -   ",
"  : @ , - : @ - @ , - @ , : @ , : @ @ : - , : - , @ @ , @ , @ @ - , @ - : @ , : - @ : - - , @ - @   ",
"    @ 5 @ - , @ - @ : , @ - - @ - , , - : @ @ , - : : - : - - : : @ @ : - @ @ - : , @ @ : @ @ @     ",
"      @ , @ @ : : @ : @ @ : : @ @ @ @ @ @ @ @ @ @ @ @ @ , @ @ , @ , , @ @ , , @ @ , , - - , ,       ",
"        - @ , - @ , - @ , - @ , : - , : - , : - , : - , @ : - @ - @ : - : - @ : - @ @ - @ @         ",
"          @ - @ @ , - : @ , , @ - : : @ , : @ , , @ - , @ - - : : @ @ , @ @ , @ @ @ - : >           ",
"              - @ - @ - - @ @ : , @ - @ @ - - @ @ : : @ @ : @ , @ , : - - : @ - - ,                 "
};
